X: 1
T: West Mabou Reel
R: reel
O: John Campbell
B:
D:
Z: John Chambers <jc:trillian.mit.edu>
N:
M: C|
L: 1/8
K: G
[|\
"G"g2dg "C"e2dB | "G"g2dg "D7"eaab | "G"g2dg "C"e2dB | "D7"A2GA  "G"BGGd |\
"G"g2dg "C"e2dB | "G"g2dg "D7"eaag | "G"bgaf    gfed |  "C"efga "D7"babg |]
[|\
"G"eddB "Em"dedB | "Am"A2GA "D7"BAAg | "G"eddB "Em"dedB | "D7"A2GA "G"BGGg |\
"G"eddB "Em"dedB | "Am"A2GA "D7"BAAf | "G"g2bg  "C"e2dB | "D7"A2GA "G"BGG2 |]
